X:29
M:3/4
L:1/8
K:C Minor
|:c>c|f2g2a2|g3z c>c|f2g2a2|g3z c>c|f2g2a2|g4e2|c6|f2 z2 F>G|A2B2c2|
e3z c>c|B2A2G2|E2 z2 e>e|c2A2G2|F4 B,2|C6|F2 z2:|

